X: 1
T: Down Among the Dead Men    [Gm]
O: Playford 1726
B: Playford v.3 1726
R: reel
Z: 2015 John Chambers <jc:trillian.mit.edu>
M: C|
L: 1/8
K: Gm
% - - - - - - - - - - - - - - - - - - - - - - - - - - - - -
d2 |\
"Gm"g2g^f g2d2 | "Cm"e2c2 "D7"d3d | "Cm"e2ed "F"c2B2 | "F7"f2F2 "Bb"B4 |\
"Gm"g2^f2 g2d2 | "Cm"e2dc "D7"d3d | "Cm"e2d2 "F"c2B2 | "F7"f2F2 "Bb"B3 ||
d |\
"Gm"g3^f  g3a | "F7"b2a2 "Bb"b4 | "Bb"Bcde      f2f2 | "Cm"cdef   g2g2 |\
"Eb"g4 "Bb"f4 | "F7"e4   "Bb"d4 "I"| "Gm"bag^f "Cm"g2c2 | "D7"d2[d2D2] "Gm"G2 |] [b2F2D2]
% - - - - - - - - - - Dance description - - - - - - - - - -
% %center Longways for as many as will.
% %begintext align
% %   The first Man clap Hands twice to his Partner, and turn her by the Right-hand quite round .|
% % The same sides .| Meet all four corner ways, and turn single, then Right and Left half round
% % with the Second Couple, then clap Hands twice to your Partners and both turn to the Right-hand
% % into their proper places.
% %endtext

%%sep 1 1 500

